X: 181
T: The Forfar Fiddler
C: Bert Murray
R: reel
B: Bert Murray's "Bon Accord Collection" 1999 p.18
N: Written for Cyril Robb
Z: 2011 John Chambers <jc:trillian.mit.edu>
N: The variation's 2nd part should probably be repeated, too.
M: 2/4
L: 1/16
K: D
uA,2 |\
D3E F2D2 | ADFA d2(cB) | AFdB ABAD | F2E2 E2(FE) | D3E F2D2 |
ADFA d2(cB) |1 AFdB AFEA F2D2 D2 :|2 ABcd efge | f2d2 d2 |
(de) | f2(af) e2(fe) | dcBA d2(AF) | G2(BG) FGAF | G2E2 E2(de) |
fAdf eAce | dcBA d2(cB) |1 AFdB AFEA | F2D2 D2 :|2 ABcd efge | f2d2 d2 |]
P: Variation
A,2 |\
DA,DE FDFG | ADFA d2(cB) | A2(dB) AFDF | G2E2 E2(FE) |
D2(A,D) F2(DF) | ADFA d2(cB) |1 AFdB AFEA | F2D2 D2 :|2 ABcd efga | f2d2 d2 |
(de) |\
fAdf eAce | dcBA d2(AF) | GABG FGAF | G2E2 E2(de) |
f2(af) e2(fe) | dcdB A2(GF) | GABG ABcA | d2D2 D2 |]

%%sep 2 1 500

